src/images/amex.svg

<svg width="54" height="35" viewBox="0 0 54 35" fill="none" 
    xmlns="http://www.w3.org/2000/svg">
    <rect width="54" height="35" rx="3" fill="#21125E"/>
    <path fill-rule="evenodd" clip-rule="evenodd" d="M41.5845 11V11.7671L41.2009 11H38.1963V11.7671L37.8128 11H33.7215C33.0183 11 32.4429 11.1279 31.9315 11.3836V11H29.0548V11.3836C28.7352 11.1279 28.3516 11 27.8402 11H17.5479L16.8447 12.5982L16.1416 11H12.8813V11.7671L12.4977 11H9.74886L8.47032 14.0046L7 17.3288H8.47032H10.2603L10.6438 16.3059H11.5388L11.9224 17.3288H15.6301V16.5616L15.9498 17.3288H17.8037L18.1233 16.5616V17.3288H27.0091V15.6667H27.137C27.1923 15.6667 27.2237 15.6667 27.2415 15.6822C27.2648 15.7026 27.2648 15.7497 27.2648 15.8584V17.2648H31.8676V16.8813C32.2511 17.0731 32.8265 17.2648 33.5936 17.2648H35.5114L35.895 16.242H36.79L37.1735 17.2648H40.8813V16.3059L41.4566 17.2648H44.4612V11H41.5845ZM19.9772 16.3699H18.8904V12.8539L17.3562 16.3699H16.3973L14.863 12.8539V16.3699H12.6895L12.242 15.411H10.0685L9.68493 16.4338H8.47032L10.3881 11.895H11.9863L13.7763 16.1781V11.895H15.5023L16.9087 14.9635L18.1872 11.895H19.9772V16.3699ZM24.3242 12.8539H21.831V13.6849H24.2603V14.5799H21.831V15.4749H24.3242V16.4338H20.7443V11.895H24.3242V12.8539ZM29.1187 14.7078C29.2466 14.9635 29.3105 15.1553 29.3105 15.5388V16.4338H28.2237V15.8584C28.2237 15.6027 28.2237 15.2192 28.032 14.9635C27.8402 14.7717 27.6484 14.7717 27.2648 14.7717H26.1142V16.4338H25.0274V11.895H27.4566C28.032 11.895 28.4155 11.895 28.7352 12.0868C29.0548 12.2785 29.2466 12.5982 29.2466 13.1096C29.2466 13.8128 28.7991 14.1963 28.4794 14.3242C28.7991 14.3881 28.9909 14.5799 29.1187 14.7078ZM31.0365 16.3699H29.9498V11.8311H31.0365V16.3699ZM43.5023 16.3699H42.0959L40.0502 12.9817V16.3699H37.8767L37.4931 15.411H35.2557L34.8721 16.4338H33.6575C33.1461 16.4338 32.5068 16.3059 32.1233 15.9224C31.7397 15.5388 31.5479 15.0274 31.5479 14.1963C31.5479 13.5571 31.6758 12.9178 32.1233 12.4064C32.4429 12.0228 33.0183 11.895 33.7215 11.895H34.7443V12.8539H33.7215C33.3379 12.8539 33.1461 12.9178 32.8904 13.1096C32.6986 13.3014 32.5708 13.6849 32.5708 14.1324C32.5708 14.6438 32.6347 14.9635 32.8904 15.2192C33.0822 15.411 33.3379 15.4749 33.6575 15.4749H34.105L35.5753 11.9589H37.1735L38.9635 16.242V11.9589H40.5616L42.4155 15.0913V11.9589H43.5023V16.3699ZM11.8584 14.4521H10.452L11.1552 12.6621L11.8584 14.4521ZM27.3926 12.8539C27.5844 12.8539 27.7762 12.8539 27.904 12.9178C28.0319 12.9817 28.1597 13.1096 28.0958 13.3653C28.0958 13.5571 28.0319 13.7489 27.904 13.8128C27.7762 13.8767 27.5844 13.8767 27.3926 13.8767H26.1141V12.8539H27.3926ZM35.6392 14.4521L36.4063 12.6621L37.1095 14.4521H35.6392ZM23.1097 21.8036L24.7718 23.6575V20.0137L23.1097 21.8036ZM17.9315 21.2922V20.4612H20.6164L21.7671 21.8036L20.5525 23.1461H17.9315V22.1872H20.2967V21.2922H17.9315ZM27.2649 21.6119C27.6485 21.6119 27.9042 21.4201 27.9042 21.0365C27.8402 20.6529 27.5845 20.4612 27.201 20.4612H25.8585V21.6119H27.2649ZM46.9543 18.6712V21.5479C47.1461 21.8676 47.2739 22.3151 47.2739 22.7626C47.2739 23.5936 46.8904 24.2968 46.2511 24.6804C45.8675 24.9361 45.2922 25 44.7168 25H41.968V24.6164C41.6484 24.8721 41.073 25 40.4977 25H31.8036V23.5297C31.8036 23.3379 31.8036 23.3379 31.6118 23.3379H31.484V25H28.6073V23.274C28.1598 23.4658 27.5844 23.4658 27.1369 23.4658H26.6894V24.9361H23.2374L22.4063 23.9772L21.5114 24.9361H15.8858V18.6712H21.6392L22.4703 19.6301L23.3652 18.6712H27.2009C27.5844 18.6712 28.3516 18.7352 28.6712 19.0548V18.6712H32.1232C32.4429 18.6712 33.1461 18.7352 33.5296 19.0548V18.6712H38.7077V19.0548C38.9634 18.7991 39.5388 18.6712 39.9862 18.6712H42.9269V19.0548C43.2465 18.7991 43.694 18.6712 44.2694 18.6712H46.1872H46.9543ZM25.8584 22.5708H27.1369C28.0958 22.5708 28.9908 22.3151 29.0547 21.0365C29.0547 19.8219 28.0958 19.5662 27.2648 19.5662H23.8767L22.5342 21.0365L21.2557 19.5662H16.9726V24.105H21.1917L22.5342 22.6347L23.8127 24.105H25.8584V22.5708ZM33.7214 23.1461C33.7214 22.7626 33.6575 22.5069 33.5296 22.3151C33.4657 22.1872 33.2739 22.0594 32.9543 21.9315C33.2739 21.8037 33.7214 21.4201 33.7214 20.7169C33.7214 20.2055 33.4657 19.8858 33.1461 19.6941C32.8264 19.5023 32.3789 19.5023 31.8675 19.5023H29.4383V24.0411H30.5251V22.379H31.6757C32.0593 22.379 32.315 22.379 32.4429 22.5708C32.6347 22.7626 32.6347 23.21 32.6347 23.4658V24.0411H33.7214V23.1461ZM35.4474 20.4612H37.9406V19.5023H34.3607V24.0411H37.9406V23.0822H35.4474V22.1872H37.8767V21.2922H35.4474V20.4612ZM38.5799 24.0411H40.6255C41.7123 24.0411 42.2876 23.5936 42.2876 22.6347C42.2876 22.1872 42.1598 21.8676 41.968 21.6758C41.7123 21.4201 41.3287 21.2922 40.7534 21.2922H40.178C40.0502 21.2922 39.9223 21.2922 39.7945 21.2283C39.6666 21.1644 39.5388 21.1005 39.5388 20.9087C39.5388 20.7808 39.5388 20.653 39.6666 20.589C39.7945 20.5251 39.9223 20.5251 40.1141 20.5251H42.0958V19.4384H39.9862C38.8356 19.4384 38.452 20.1416 38.452 20.7808C38.452 22.0713 39.4746 22.1238 40.4334 22.1731C40.5195 22.1775 40.6051 22.1819 40.6894 22.1872C40.8812 22.1872 41.0091 22.2511 41.073 22.3151C41.1369 22.379 41.2009 22.5069 41.2009 22.6347C41.2009 22.7626 41.1369 22.8904 41.073 22.9543C40.9452 23.0822 40.8173 23.0822 40.6255 23.0822H38.5799V24.0411ZM44.7808 24.0411C45.42 24.0411 45.8675 23.8493 46.1232 23.5936C46.3789 23.3379 46.5068 23.0183 46.5068 22.6347C46.5068 22.3151 46.4429 21.9954 46.2511 21.7397C46.2511 21.7397 46.2511 21.6758 46.1872 21.6758C45.9315 21.4201 45.5479 21.2922 44.9725 21.2922H44.3972C44.2694 21.2922 44.1415 21.2922 44.0136 21.2283C43.8219 21.1644 43.7579 21.1005 43.7579 20.9087C43.7579 20.7808 43.7579 20.653 43.8858 20.589C44.0136 20.5251 44.1415 20.5251 44.3333 20.5251H46.2511V19.4384H44.1415C42.9908 19.4384 42.6073 20.1416 42.6073 20.7808C42.6073 22.0713 43.6299 22.1238 44.5886 22.1731L44.5887 22.1731C44.6748 22.1775 44.7604 22.1819 44.8447 22.1872C45.0365 22.1872 45.1643 22.2511 45.2283 22.3151C45.2922 22.379 45.3561 22.5069 45.3561 22.6347C45.3561 22.7626 45.2922 22.8904 45.2283 22.9543C45.1004 23.0822 44.9725 23.0822 44.7808 23.0822H42.7351V24.0411H44.7808ZM32.3789 20.589C32.2511 20.5251 32.0593 20.5251 31.8675 20.5251H30.589V21.548H31.8675C32.0593 21.548 32.2511 21.548 32.3789 21.484C32.5068 21.4201 32.5707 21.2283 32.5707 21.0365C32.6346 20.7808 32.5068 20.653 32.3789 20.589Z" fill="white"/>
</svg>

<svg width="54" height="35" fill="none" xmlns="http://www.w3.org/2000/svg"><rect width="54" height="35" rx="3" fill="#21125E"/><path fill-rule="evenodd" clip-rule="evenodd" d="M41.584 11v.767L41.201 11h-3.005v.767L37.813 11H33.72c-.703 0-1.278.128-1.79.384V11h-2.876v.384c-.32-.256-.703-.384-1.215-.384H17.548l-.703 1.598L16.142 11h-3.26v.767L12.497 11h-2.75L8.47 14.005 7 17.329h3.26l.384-1.023h.895l.383 1.023h3.708v-.767l.32.767h1.854l.32-.767v.767h8.885v-1.662h.128c.055 0 .087 0 .104.015.024.02.024.068.024.176v1.407h4.603v-.384c.383.192.959.384 1.726.384h1.917l.384-1.023h.895l.383 1.023h3.708v-.96l.576.96h3.004V11h-2.877zm-21.607 5.37H18.89v-3.516l-1.534 3.516h-.959l-1.534-3.516v3.516H12.69l-.448-.959h-2.174l-.383 1.023H8.47l1.918-4.539h1.598l1.79 4.283v-4.283h1.726l1.407 3.069 1.278-3.069h1.79v4.475zm4.347-3.516h-2.493v.83h2.43v.896h-2.43v.895h2.493v.959h-3.58v-4.539h3.58v.959zm4.795 1.854c.128.255.192.447.192.83v.896h-1.087v-.576c0-.255 0-.639-.192-.895-.192-.191-.384-.191-.767-.191h-1.15v1.662h-1.088v-4.539h2.43c.575 0 .959 0 1.278.192.32.191.512.511.512 1.023 0 .703-.448 1.086-.768 1.214.32.064.512.256.64.384zm1.918 1.662H29.95v-4.54h1.087v4.539zm12.465 0h-1.406l-2.046-3.388v3.388h-2.173l-.384-.959h-2.237l-.384 1.023h-1.215c-.51 0-1.15-.128-1.534-.512-.383-.383-.575-.895-.575-1.726 0-.639.128-1.278.575-1.79.32-.383.895-.511 1.599-.511h1.022v.959h-1.023c-.383 0-.575.064-.83.256-.192.191-.32.575-.32 1.022 0 .512.064.832.32 1.087.191.192.447.256.767.256h.447l1.47-3.516h1.598l1.79 4.283v-4.283h1.599l1.854 3.132V11.96h1.086v4.41zm-31.644-1.918h-1.406l.703-1.79.703 1.79zm15.535-1.598c.191 0 .383 0 .511.064s.256.192.192.447c0 .192-.064.384-.192.448s-.32.064-.511.064h-1.279v-1.023h1.279zm8.246 1.598l.767-1.79.703 1.79h-1.47zm-12.53 7.352l1.663 1.854v-3.644l-1.662 1.79zm-5.178-.512v-.83h2.685l1.151 1.342-1.215 1.342h-2.62v-.959h2.365v-.895H17.93zm9.334.32c.383 0 .64-.192.64-.575-.065-.384-.32-.576-.704-.576h-1.343v1.15h1.407zm19.69-2.94v2.876c.191.32.319.767.319 1.215 0 .83-.384 1.534-1.023 1.917-.383.256-.959.32-1.534.32h-2.749v-.384c-.32.256-.895.384-1.47.384h-8.694v-1.47c0-.192 0-.192-.192-.192h-.128V25h-2.877v-1.726c-.447.192-1.023.192-1.47.192h-.448v1.47h-3.452l-.83-.959-.896.96h-5.625V18.67h5.753l.831.96.895-.96h3.836c.383 0 1.15.064 1.47.384v-.384h3.452c.32 0 1.023.064 1.407.384v-.384h5.178v.384c.255-.256.83-.384 1.278-.384h2.94v.384c.32-.256.768-.384 1.343-.384h2.685zM25.857 22.57h1.279c.959 0 1.854-.256 1.918-1.535 0-1.214-.96-1.47-1.79-1.47h-3.388l-1.343 1.47-1.278-1.47h-4.283v4.539h4.219l1.342-1.47 1.279 1.47h2.045V22.57zm7.863.575c0-.383-.063-.64-.191-.83-.064-.129-.256-.257-.576-.384.32-.128.767-.512.767-1.215a1.13 1.13 0 00-.575-1.023c-.32-.192-.767-.192-1.279-.192h-2.429v4.54h1.087v-1.663h1.15c.384 0 .64 0 .768.192.192.192.192.639.192.895v.575h1.086v-.895zm1.726-2.685h2.494v-.959h-3.58v4.54h3.58v-.96h-2.494v-.895h2.43v-.895h-2.43v-.83zm3.133 3.58h2.046c1.086 0 1.662-.447 1.662-1.406 0-.448-.128-.767-.32-.96-.256-.255-.64-.383-1.215-.383h-.575c-.128 0-.256 0-.383-.064-.128-.064-.256-.128-.256-.32 0-.127 0-.255.128-.319.127-.064.255-.064.447-.064h1.982v-1.087h-2.11c-1.15 0-1.534.704-1.534 1.343 0 1.29 1.023 1.343 1.981 1.392l.256.014c.192 0 .32.064.384.128a.488.488 0 01.128.32.488.488 0 01-.128.32c-.128.127-.256.127-.447.127H38.58v.96zm6.2 0c.64 0 1.087-.192 1.343-.447.256-.256.384-.576.384-.96 0-.319-.064-.639-.256-.894 0 0 0-.064-.064-.064-.255-.256-.64-.384-1.215-.384h-.575c-.128 0-.255 0-.383-.064-.192-.064-.256-.128-.256-.32 0-.127 0-.255.128-.319s.255-.064.447-.064h1.918v-1.087h-2.11c-1.15 0-1.534.704-1.534 1.343 0 1.29 1.023 1.343 1.982 1.392l.256.014c.191 0 .32.064.383.128a.488.488 0 01.128.32.488.488 0 01-.128.32c-.128.127-.256.127-.447.127h-2.046v.96h2.046zM32.38 20.59c-.128-.064-.32-.064-.511-.064H30.59v1.023h1.279c.191 0 .383 0 .51-.064.129-.064.193-.256.193-.448.064-.255-.064-.383-.192-.447z" fill="#fff"/></svg>
